X:480
T:The Goat's Song
N:"Moderate"
N:Irish title: cronan go.bair
B:O'Neill's 480
Z:Transcribed by henrik.norbeck@mailbox.swipnet.se
M:6/8
L:1/8
K:Dm
c|Acd cAF|A/B/c.A cGc|Acd cAF|Tf2 e Td2 c|
Acd cAF|A/B/cA cGc|AGF AfHa|gfe ed2 :|
f|dcAA gfAA|gaAA dcGG|dcAA gfAA|gafc d2 f|
[1 dcAA gfAA|gaAA cGc|AGF AfHa|gfe ed2 :|
[2 cde fga|gfe gfed|cAF AfHa|gfe ed2||
